X:0
T:La Maison de Glace
C:Rejean Brunet
M:6/8
K:D
"D"D3 DEF | "F#m"A3 AFA |"G"B3 Bcd |"A"cBA "G"GFE |"D"D3 DEF|
"F#m"A3 AFA |1"G"B3 BAG | "D/A"F3 "A"E3:|2"G"B3 Bcd | "A"c3 "F#"F3||
|:"Bm"B3 Bcd | "G"B3 Bcd| "D"fed "Em"edc| "F#m" dcA "G"dcA|
"Bm"B3 Bcd | "G"B3 Bcd| "D"fed "Em"edc|1"A"Adc "G"d2 c:|2"A"Adc "D"d3|]
